X:11276
T:Moving Cloud
S:irtrad-l, C. Walshaw, 4/95
H:Flute players (e.g. Matt Molloy) normally play this in G. It's
H:in Bulmer's & Sharpley in both keys.
M:4/4
K:F
|: CFAF DFBF | CFAF GFDF | GB~B2 Acfa | gfdc AGFD |
| {C}F3C ^C3=C | CFAF GFDF | GABc defd |[1 cAGA F3D :|[2 cAGA FGAB |
|: ~c2gc acgc | ~c2ac gcdc | ~d2ad =bdad | =bagf agfd |
| ~c2gc acgc | ~c2ac gc~c2 | =bagf agfd | caga f3d :|
